X:266
T: He wangdaniang lagua
N: C1763
O: China, Shandong Wulian
S: III, 338]
N: Humorvoll
R: Xiaodiao]
M: 2/4
L: 1/16
K: F
c2A2A2c2 | d3fc2A2 | d2dfd2c2 | A2GAF4
c2A2A2c2 | d2f2c2A2 | d2dfd2c2 | A2GAF4
c2D2F2DF | G2c2A4 | G2GFG2A2 | d2A2G2F2 | D2DCD2G2 | F6
f2 | d2dcA2fd | c2c4A2 | GAGFD2AG | F8

